X:1
T:Beth's Pasta Salad
C:Megan Wobus
S:Megan Wobus composed 2003
M:2/4
R:reel
K:D
|: (3ABc | dFAd BGDB | Acea fd (3ABc | dFAd BGDB | Acea f2 :|
 ef |: g4 gfeg | f4 fedf | ecAe fdAf |[1 gdgd fdAf :|[2 gdgd fd ||
|: AF | G3A B2AG | Adeg fdAF | GFEG FEDF | EDEF E2EF  |
 G3A B2AG | Adeg fdAF | GeGE FdFD | EDC'E D2 :|
W:Copyright 2003 Megan Wobus, PGTPPCATPL AORR
